X:53
T: Ich verkauf mein Gut (Band 1), S. 159
N: P0828
O: Lothringen
S: PINCK, Louis: Verklingende Weisen, Bd 1, Metz 1928]
R: Auswandererlied, Abschied]
M: 2/4
L: 1/16
K: F
CC | F2F2G2G2 | A4A2
G2 | F4FFAF | E4z2
E2 | DDD2F2D2 | C2F2F2
FF | G2G2E2E2 | F4z2

@@@ Tune index: 7603
